packages/foundations/assets/icons/functional/images/notification/check_circle_16.svg

<svg width="16" height="16" viewBox="0 0 16 16" fill="none" xmlns="http://www.w3.org/2000/svg">
<g clip-path="url(#clip0_187_154)">
<path fill-rule="evenodd" clip-rule="evenodd" d="M7.99998 1.60001C11.525 1.60001 14.4 4.47505 14.4 8.00001C14.4 11.525 11.525 14.4 7.99998 14.4C4.47498 14.4 1.59998 11.525 1.59998 8.00001C1.59998 4.47505 4.47498 1.60001 7.99998 1.60001ZM7.99997 3.20001C5.34998 3.20001 3.19998 5.34996 3.19998 8.00001C3.19998 10.6501 5.34998 12.8 7.99997 12.8C10.65 12.8 12.8 10.6501 12.8 8.00001C12.8 5.34996 10.65 3.20001 7.99997 3.20001ZM10.2259 5.67721L11.3498 6.80121L7.09714 11.0538L4.82277 8.82481L5.94577 7.70185L7.079 8.79921L10.2259 5.67721Z" fill="#1A1C1F"/>
</g>
<defs>
<clipPath id="clip0_187_154">
<rect width="16" height="16" fill="white"/>
</clipPath>
</defs>
</svg>

<svg xmlns="http://www.w3.org/2000/svg" width="16" height="16" fill="none"><g clip-path="url(#a)"><path fill="#1A1C1F" fill-rule="evenodd" d="M8 1.6c3.525 0 6.4 2.875 6.4 6.4s-2.875 6.4-6.4 6.4S1.6 11.525 1.6 8 4.475 1.6 8 1.6m0 1.6a4.801 4.801 0 0 0 0 9.6 4.801 4.801 0 0 0 0-9.6m2.226 2.477 1.124 1.124-4.253 4.253-2.274-2.23 1.123-1.122 1.133 1.097z" clip-rule="evenodd"/></g><defs><clipPath id="a"><path fill="#fff" d="M0 0h16v16H0z"/></clipPath></defs></svg>
